assets/svg/folding-list.svg

<svg width="74" height="70" viewBox="0 0 74 70" fill="none" xmlns="http://www.w3.org/2000/svg">
<path d="M56.3367 10.4352C56.3686 10.4376 56.4006 10.4399 56.4332 10.4399C56.4885 10.4399 56.5437 10.4352 56.5978 10.4277C58.0455 10.4573 59.2042 11.6381 59.2059 13.0858C59.2059 13.7436 59.7393 14.277 60.3971 14.277C61.0549 14.277 61.5883 13.7436 61.5883 13.0858C61.5854 10.7179 59.937 8.66937 57.6244 8.15985V7.01518C57.6244 6.35734 57.091 5.82398 56.4332 5.82398C55.7754 5.82398 55.242 6.35734 55.242 7.01518V8.21394C52.7968 8.86771 51.2147 11.2332 51.5445 13.743C51.8743 16.2528 54.0136 18.1292 56.5449 18.1292C58.0147 18.1292 59.2059 19.321 59.2059 20.7908C59.2059 22.26 58.0147 23.4518 56.5449 23.4518C55.0751 23.4518 53.8839 22.26 53.8839 20.7908C53.8839 20.1329 53.3505 19.5996 52.6927 19.5996C52.0348 19.5996 51.5015 20.1329 51.5015 20.7908C51.5044 23.0731 53.0376 25.0699 55.242 25.6626V26.9678C55.242 27.6257 55.7754 28.159 56.4332 28.159C57.091 28.159 57.6244 27.6257 57.6244 26.9678V25.7173C60.14 25.1665 61.8367 22.8085 61.5592 20.2481C61.2824 17.6877 59.1204 15.7474 56.5449 15.7479C55.1158 15.7485 53.9415 14.6201 53.885 13.1922C53.8292 11.7643 54.9116 10.5469 56.3367 10.4358V10.4352Z" fill="#6ABF16"/>
<path d="M56.6129 0C49.2848 0 43.031 4.78168 40.6882 11.1844H11.1227C10.4678 11.1844 9.93619 11.7748 9.93153 12.4291L9.65002 54.2166H1.22261C0.564774 54.2166 0 54.6929 0 55.3519V60.6548C0.0151226 65.647 3.94702 69.7481 8.93402 69.9738V70H45.7124V69.9651C46.0102 69.9762 46.1329 70 46.3214 70H46.347C51.5085 69.9919 55.6887 65.8052 55.6887 60.6437V33.8324C55.9865 33.8486 56.3018 33.8574 56.61 33.8574C65.9355 33.8574 73.5242 26.2541 73.5242 16.9281C73.5242 7.60264 65.939 0 56.6129 0ZM9.37955 67.6176C5.52618 67.6124 2.39985 64.4965 2.3824 60.6425V56.599H36.9273V60.6257C36.929 63.1116 37.9219 65.4946 39.6854 67.2471C39.8105 67.3721 39.9658 67.4687 40.0966 67.6176H9.37955ZM53.3063 60.6425C53.3069 64.4895 50.1922 67.61 46.3458 67.6176H46.3231C42.461 67.6106 39.3289 64.4884 39.3097 60.6268V55.3519C39.3196 55.0472 39.2032 54.7523 38.9874 54.5371C38.7717 54.3218 38.4768 54.2061 38.1726 54.2166H12.0324L12.3058 13.5668H40.0268C39.8157 14.6574 39.7064 15.7648 39.7005 16.8752C39.6982 19.2233 40.188 21.5452 41.1384 23.692H29.8871C29.2287 23.692 28.6959 24.2254 28.6959 24.8832C28.6959 25.5411 29.2287 26.0744 29.8871 26.0744H42.4308C44.8882 29.9388 48.8166 32.633 53.3063 33.5346V60.6425ZM56.6129 31.4755C48.5886 31.4755 42.0829 24.9705 42.0835 16.9455C42.0835 8.92064 48.5886 2.41556 56.6135 2.41556C64.6378 2.41556 71.1429 8.92122 71.1429 16.9455C71.1342 24.9664 64.6344 31.4668 56.6129 31.4755Z" fill="#6ABF16"/>
<path d="M22.2408 31.6198C20.1382 31.6198 18.4282 33.2757 18.4282 35.3115C18.4282 37.3472 20.1382 39.0032 22.2408 39.0032C24.3435 39.0032 26.0541 37.3472 26.0541 35.3115C26.0541 33.2757 24.3435 31.6198 22.2408 31.6198ZM22.2408 36.6207C21.4515 36.6207 20.8106 36.0333 20.8106 35.3115C20.8106 34.5891 21.4521 34.0022 22.2408 34.0022C23.0295 34.0022 23.6717 34.5897 23.6717 35.3115C23.6717 36.0333 23.0295 36.6207 22.2408 36.6207Z" fill="#6ABF16"/>
<path d="M28.6959 35.3062C28.6959 35.9641 29.2287 36.4974 29.8871 36.4974H45.7682C46.4261 36.4974 46.9594 35.9641 46.9594 35.3062C46.9594 34.6484 46.4261 34.115 45.7682 34.115H29.8871C29.2287 34.115 28.6959 34.6484 28.6959 35.3062Z" fill="#6ABF16"/>
<path d="M22.2408 21.2648C20.1382 21.2648 18.4282 22.9213 18.4282 24.9571C18.4282 26.9928 20.1382 28.6488 22.2408 28.6488C24.3435 28.6488 26.0541 26.9928 26.0541 24.9571C26.0541 22.9213 24.3435 21.2648 22.2408 21.2648ZM22.2408 26.2664C21.4515 26.2664 20.8106 25.6789 20.8106 24.9571C20.8106 24.2353 21.4521 23.6472 22.2408 23.6472C23.0295 23.6472 23.6717 24.2347 23.6717 24.9571C23.6717 25.6789 23.0295 26.2669 22.2408 26.2669V26.2664Z" fill="#6ABF16"/>
<path d="M22.2408 41.9736C20.1382 41.9736 18.4282 43.6295 18.4282 45.6653C18.4282 47.701 20.1382 49.357 22.2408 49.357C24.3435 49.357 26.0541 47.701 26.0541 45.6653C26.0541 43.6295 24.3435 41.9736 22.2408 41.9736ZM22.2408 46.9745C21.4515 46.9745 20.8106 46.3877 20.8106 45.6653C20.8106 44.9435 21.4521 44.356 22.2408 44.356C23.0295 44.356 23.6717 44.9435 23.6717 45.6653C23.6717 46.3871 23.0295 46.9745 22.2408 46.9745Z" fill="#6ABF16"/>
<path d="M45.7682 44.538H29.8871C29.2287 44.538 28.6959 45.0714 28.6959 45.7293C28.6959 46.3871 29.2287 46.9205 29.8871 46.9205H45.7682C46.4261 46.9205 46.9594 46.3871 46.9594 45.7293C46.9594 45.0714 46.4261 44.538 45.7682 44.538Z" fill="#6ABF16"/>
</svg>

<svg width="74" height="70" fill="none" xmlns="http://www.w3.org/2000/svg"><path d="M56.337 10.435a1.201 1.201 0 00.261-.008 2.662 2.662 0 012.608 2.659 1.191 1.191 0 002.382 0 5.051 5.051 0 00-3.964-4.926V7.015a1.191 1.191 0 00-2.382 0v1.199a5.043 5.043 0 001.303 9.915 2.661 2.661 0 11-2.661 2.662 1.191 1.191 0 00-2.383 0 5.052 5.052 0 003.741 4.872v1.305a1.191 1.191 0 002.382 0v-1.25a5.043 5.043 0 00-1.08-9.97 2.66 2.66 0 01-.207-5.312z" fill="#6ABF16"/><path d="M56.613 0C49.285 0 43.03 4.782 40.688 11.184H11.123c-.655 0-1.187.59-1.191 1.245L9.65 54.217H1.223c-.658 0-1.223.476-1.223 1.135v5.303a9.357 9.357 0 008.934 9.319V70h36.778v-.035c.298.011.42.035.61.035h.025a9.357 9.357 0 009.342-9.356V33.832c.297.017.613.025.921.025 9.326 0 16.914-7.603 16.914-16.929C73.524 7.603 65.94 0 56.613 0zM9.38 67.618a7.007 7.007 0 01-6.998-6.975v-4.044h34.545v4.027a9.345 9.345 0 002.758 6.621c.125.125.28.222.412.37H9.38zm43.926-6.975a6.974 6.974 0 01-6.96 6.975h-.023a7.026 7.026 0 01-7.013-6.991v-5.275a1.1 1.1 0 00-1.137-1.135h-26.14l.273-40.65h27.72a17.909 17.909 0 00-.326 3.308 16.798 16.798 0 001.438 6.817h-11.25a1.19 1.19 0 100 2.382H42.43a16.81 16.81 0 0010.875 7.46v27.108zm3.307-29.168c-8.024 0-14.53-6.505-14.53-14.53 0-8.024 6.506-14.53 14.53-14.53 8.025 0 14.53 6.506 14.53 14.53-.009 8.021-6.509 14.522-14.53 14.53z" fill="#6ABF16"/><path d="M22.24 31.62c-2.102 0-3.812 1.656-3.812 3.692 0 2.035 1.71 3.691 3.813 3.691 2.102 0 3.813-1.656 3.813-3.691 0-2.036-1.71-3.692-3.813-3.692zm0 5c-.788 0-1.43-.587-1.43-1.308 0-.723.642-1.31 1.43-1.31.79 0 1.432.588 1.432 1.31 0 .721-.643 1.309-1.431 1.309zM28.696 35.306a1.19 1.19 0 001.191 1.191h15.881a1.191 1.191 0 100-2.382h-15.88a1.19 1.19 0 00-1.192 1.191zM22.24 21.265c-2.102 0-3.812 1.656-3.812 3.692 0 2.036 1.71 3.692 3.813 3.692 2.102 0 3.813-1.656 3.813-3.692 0-2.036-1.71-3.692-3.813-3.692zm0 5.001c-.788 0-1.43-.587-1.43-1.309s.642-1.31 1.43-1.31c.79 0 1.432.588 1.432 1.31 0 .722-.643 1.31-1.431 1.31zM22.24 41.974c-2.102 0-3.812 1.656-3.812 3.691 0 2.036 1.71 3.692 3.813 3.692 2.102 0 3.813-1.656 3.813-3.692 0-2.035-1.71-3.691-3.813-3.691zm0 5c-.788 0-1.43-.586-1.43-1.309 0-.721.642-1.309 1.43-1.309.79 0 1.432.587 1.432 1.31 0 .721-.643 1.309-1.431 1.309zM45.768 44.538h-15.88a1.19 1.19 0 100 2.383h15.88a1.191 1.191 0 000-2.383z" fill="#6ABF16"/></svg>
